images/message.svg

<?xml version="1.0" encoding="iso-8859-1"?>
<!-- Generator: Adobe Illustrator 19.0.0, SVG Export Plug-In . SVG Version: 6.00 Build 0)  -->
<svg xmlns="http://www.w3.org/2000/svg" xmlns:xlink="http://www.w3.org/1999/xlink" version="1.1" id="Layer_1" x="0px" y="0px" viewBox="0 0 512 512" style="enable-background:new 0 0 512 512;" xml:space="preserve" width="512px" height="512px">
<g>
	<g>
		<path d="M511.609,197.601c-0.001-0.77-0.173-1.933-0.472-2.603c-0.787-2.854-2.536-5.461-5.154-7.281l-73.292-50.948V82.153    c0-7.24-5.872-13.112-13.112-13.112H335.26l-71.743-49.878c-4.484-3.121-10.437-3.134-14.935-0.026l-72.206,49.904H92.426    c-7.242,0-13.112,5.872-13.112,13.112v53.973L5.666,187.027c-3.623,2.504-5.583,6.507-5.645,10.6    C0.017,197.704,0,197.777,0,197.857l0.391,284.235c0.005,3.477,1.391,6.81,3.852,9.266c2.458,2.451,5.788,3.827,9.26,3.827    c0.007,0,0.012,0,0.018,0l485.385-0.667c7.24-0.01,13.104-5.889,13.094-13.13L511.609,197.601z M432.69,168.708l41.898,29.118    l-41.898,29.128V168.708z M256.015,45.884l33.31,23.156h-66.812L256.015,45.884z M105.538,95.265h300.928v149.921L305.43,315.428    l-41.194-31.954c-0.064-0.05-0.119-0.081-0.181-0.126c-4.604-3.454-11.116-3.581-15.894,0.126l-41.493,32.185l-101.13-69.893    V95.265z M79.314,168.003v59.64l-43.146-29.819L79.314,168.003z M26.258,222.867l158.669,109.655L26.578,455.346L26.258,222.867z     M51.875,468.909l204.324-158.484l203.591,157.923L51.875,468.909z M327.144,332.271l158.276-110.036l0.32,233.059    L327.144,332.271z" fill="#fd784f"/>
	</g>
</g>
<g>
	<g>
		<path d="M344.77,147.713H167.234c-7.24,0-13.112,5.872-13.112,13.112s5.872,13.112,13.112,13.112H344.77    c7.242,0,13.112-5.872,13.112-13.112S352.012,147.713,344.77,147.713z" fill="#fd784f"/>
	</g>
</g>
<g>
	<g>
		<path d="M344.77,215.895H167.234c-7.24,0-13.112,5.872-13.112,13.112c0,7.24,5.872,13.112,13.112,13.112H344.77    c7.242,0,13.112-5.872,13.112-13.112C357.882,221.767,352.012,215.895,344.77,215.895z" fill="#fd784f"/>
	</g>
</g>
<g>
</g>
<g>
</g>
<g>
</g>
<g>
</g>
<g>
</g>
<g>
</g>
<g>
</g>
<g>
</g>
<g>
</g>
<g>
</g>
<g>
</g>
<g>
</g>
<g>
</g>
<g>
</g>
<g>
</g>
</svg>

<svg xmlns="http://www.w3.org/2000/svg" width="512" height="478.371" viewBox="0 0 512 478.371">
  <g id="message" transform="translate(0 -16.814)">
    <g id="Group_2" data-name="Group 2">
      <g id="Group_1" data-name="Group 1">
        <path id="Path_1" data-name="Path 1" d="M511.609,197.6a7.557,7.557,0,0,0-.472-2.6,13.069,13.069,0,0,0-5.154-7.281l-73.292-50.948V82.153a13.114,13.114,0,0,0-13.112-13.112H335.26L263.517,19.163a13.1,13.1,0,0,0-14.935-.026l-72.206,49.9H92.426A13.113,13.113,0,0,0,79.314,82.153v53.973l-73.648,50.9a13.085,13.085,0,0,0-5.645,10.6c0,.077-.021.15-.021.23L.391,482.092A13.109,13.109,0,0,0,13.5,495.185h.018l485.385-.667A13.113,13.113,0,0,0,512,481.388ZM432.69,168.708l41.9,29.118-41.9,29.128ZM256.015,45.884l33.31,23.156H222.513ZM105.538,95.265H406.466V245.186L305.43,315.428l-41.194-31.954c-.064-.05-.119-.081-.181-.126a13.1,13.1,0,0,0-15.894.126l-41.493,32.185-101.13-69.893ZM79.314,168v59.64L36.168,197.824ZM26.258,222.867,184.927,332.522,26.578,455.346ZM51.875,468.909,256.2,310.425,459.79,468.348ZM327.144,332.271,485.42,222.235l.32,233.059Z" fill="#d3ae29"/>
      </g>
    </g>
    <g id="Group_4" data-name="Group 4">
      <g id="Group_3" data-name="Group 3">
        <path id="Path_2" data-name="Path 2" d="M344.77,147.713H167.234a13.112,13.112,0,0,0,0,26.224H344.77a13.112,13.112,0,0,0,0-26.224Z" fill="#d3ae29"/>
      </g>
    </g>
    <g id="Group_6" data-name="Group 6">
      <g id="Group_5" data-name="Group 5">
        <path id="Path_3" data-name="Path 3" d="M344.77,215.9H167.234a13.112,13.112,0,0,0,0,26.224H344.77a13.112,13.112,0,0,0,0-26.224Z" fill="#d3ae29"/>
      </g>
    </g>
  </g>
</svg>
